assets/awsapigatewayendpoint/original.svg

<svg fill="none" height="48" viewBox="0 0 48 48" width="48" xmlns="http://www.w3.org/2000/svg"><path clip-rule="evenodd" d="m25.909 24.955h1.908v-1.909h-1.908zm-2.864 0h1.909v-1.909h-1.909zm-2.863 0h1.909v-1.909h-1.909zm17.136 6.048-6.59 5.799v-25.47l6.59 5.798zm-6.374-22.077c-.204-.087-1.088-.347-1.702-.006l-.514.285v29.724l.514.285c.229.127.495.171.751.171.428 0 .823-.122.951-.177l.148-.062 7.473-6.577c.463-.27.753-.756.753-1.285v-14.435c0-.528-.289-1.014-.752-1.285l-7.474-6.576zm-13.671 27.877-6.591-5.799v-13.875l6.591-5.798zm-.218-27.877-.148.062-7.475 6.577c-.461.271-.75.756-.75 1.284v14.435c0 .528.289 1.015.751 1.284l7.474 6.578.148.062c.127.055.523.177.951.177.255 0 .521-.044.75-.17l.517-.285v-29.726l-.517-.285c-.612-.337-1.498-.08-1.701.007m26.945 23.358-11.716 11.716h-16.569l-11.715-11.716v-16.568l11.715-11.716h16.569l11.716 11.716zm-10.888-30.284h-18.225l-12.887 12.888v18.224l12.887 12.888h18.225l12.888-12.888v-18.224z" fill="#8c4fff" fill-rule="evenodd"/></svg>

<svg xmlns="http://www.w3.org/2000/svg" width="48" height="48" fill="none" viewBox="0 0 48 48"><path fill="#8c4fff" fill-rule="evenodd" d="M25.909 24.955h1.908v-1.909h-1.908zm-2.864 0h1.909v-1.909h-1.909zm-2.863 0h1.909v-1.909h-1.909zm17.136 6.048-6.59 5.799v-25.47l6.59 5.798zM30.944 8.926c-.204-.087-1.088-.347-1.702-.006l-.514.285v29.724l.514.285c.229.127.495.171.751.171.428 0 .823-.122.951-.177l.148-.062 7.473-6.577c.463-.27.753-.756.753-1.285V16.849c0-.528-.289-1.014-.752-1.285l-7.474-6.576zM17.273 36.803l-6.591-5.799V17.129l6.591-5.798zm-.218-27.877-.148.062-7.475 6.577c-.461.271-.75.756-.75 1.284v14.435c0 .528.289 1.015.751 1.284l7.474 6.578.148.062c.127.055.523.177.951.177.255 0 .521-.044.75-.17l.517-.285V9.204l-.517-.285c-.612-.337-1.498-.08-1.701.007M44 32.284 32.284 44H15.715L4 32.284V15.716L15.715 4h16.569L44 15.716zM33.112 2H14.887L2 14.888v18.224L14.887 46h18.225L46 33.112V14.888z" clip-rule="evenodd"/></svg>
